src/topics/icons/lastfm.svg

<svg height="131" preserveAspectRatio="xMidYMid" viewBox="0 0 512 131" width="512" xmlns="http://www.w3.org/2000/svg"><g fill="#d41107"><path d="m114.409975 120.16185-6.03279-16.398442s-9.8031032 10.933258-24.5037858 10.933258c-13.0079775 0-22.2441975-11.310217-22.2441975-29.4071427 0-23.1851509 11.685732-31.4789732 23.1858731-31.4789732 16.5869222 0 21.8650722 10.7447785 26.3893032 24.5052299l6.03279 18.8501213c6.030623 18.2839607 17.34084 32.9860877 49.950691 32.9860877 23.375797 0 39.209523-7.162223 39.209523-26.0109 0-15.26901-8.672948-23.1865953-24.883633-26.9569085l-12.063413-2.6387136c-8.2931-1.8847955-10.743335-5.2781496-10.743335-10.9332582 0-6.4090268 5.088226-10.1786177 13.383493-10.1786177 9.04774 0 13.948208 3.393354 14.702849 11.4986967l18.849399-2.2624767c-1.507836-16.9646037-13.194291-23.9390691-32.422093-23.9390691-16.963882 0-33.552248 6.4090268-33.552248 26.955464 0 12.8180536 6.220547 20.9241185 21.864349 24.6937095l12.82022 3.0156728c9.61318 2.2624767 12.815888 6.2205472 12.815888 11.6871758 0 6.973022-6.785264 9.800937-19.603318 9.800937-19.038601 0-26.954742-9.990138-31.479695-23.7505896l-6.220547-18.848677c-7.915419-24.5052299-20.545715-33.5536925-45.6171062-33.5536925-27.7086601 0-42.4122313 17.5300423-42.4122313 47.3126996 0 28.6532245 14.7035712 44.1085475 41.0943188 44.1085475 21.2989107 0 31.4796957-9.990139 31.4796957-9.990139"/><path d="m33.7428942 111.301867c-1.8855176.566161-3.7703131.942398-6.2205472.942398-4.5242313 0-7.7291058-2.072553-7.7291058-7.540626v-102.73579697h-19.7932412v107.44922997c0 14.13741 9.80310296 19.983165 21.3010776 19.983165 3.7703131 0 7.3521467-.566883 11.876378-1.696316z"/><path d="m272.183966 108.286195c-4.90119 3.394798-9.04774 5.091836-14.702849 5.091836-7.163667 0-11.12246-3.770313-11.12246-13.007255v-44.1128804h26.014511v-15.4560451h-25.826031v-20.9255628l-19.980999 2.4509563v18.4746065h-12.631018v15.4560451h12.631018v48.2579864c0 17.345895 9.990138 25.636107 26.201546 25.636107 8.859983 0 16.777568-1.69415 22.998116-5.275261z"/><path d="m289.376045 115.071458c0 7.73055 6.03279 13.951098 13.760451 13.951098 8.106787 0 14.138855-6.220548 14.138855-13.951098 0-7.916863-6.032068-13.946764-14.138855-13.946764-7.727661 0-13.760451 6.029901-13.760451 13.946764"/><path d="m337.766183 56.2578956v71.6330604h19.793242v-71.6330604h22.243475v-15.4560451h-22.243475v-7.9183075c0-11.8749337 5.090392-15.6445247 13.384214-15.6445247 5.843588 0 9.802381 1.3179126 14.326612 3.769591l3.20343-16.58981099c-5.276705-2.45095628-11.497974-3.77031312-19.037878-3.77031312-16.589811 0-31.66962 7.91686319-31.66962 31.48041751v8.6729478h-12.630296v15.4560451z"/><path d="m458.672564 57.956378c-2.262477-14.1381326-11.498697-19.229969-23.563554-19.229969-12.064136 0-22.431233 5.4673512-26.956908 18.8508435l-2.449512-16.775402h-16.023651v87.0891055h19.793242v-49.1989391c0-16.7790127 8.671503-23.1880395 17.908445-23.1880395 9.613902 0 13.572694 6.4090268 13.572694 16.7775684v55.6094102h19.604762v-49.3874186c0-16.5905332 8.859261-22.99956 18.096925-22.99956 9.425422 0 13.38277 6.4090268 13.38277 16.7775684v55.6094102h19.793963v-62.5824313c0-18.6623639-10.933258-26.5821157-25.449071-26.5821157-12.251171 0-23.185874 5.4673512-27.710105 19.229969"/></g></svg>

<?xml version="1.0" encoding="UTF-8" standalone="no"?>
<svg width="512px" height="131px" viewBox="0 0 512 131" version="1.1" xmlns="http://www.w3.org/2000/svg" xmlns:xlink="http://www.w3.org/1999/xlink" preserveAspectRatio="xMidYMid">
	<g fill="#D41107">
		<path d="M114.409975,120.16185 L108.377185,103.763408 C108.377185,103.763408 98.5740818,114.696666 83.8733992,114.696666 C70.8654217,114.696666 61.6292017,103.386449 61.6292017,85.2895233 C61.6292017,62.1043724 73.3149337,53.8105501 84.8150748,53.8105501 C101.401997,53.8105501 106.680147,64.5553286 111.204378,78.31578 L117.237168,97.1659013 C123.267791,115.449862 134.578008,130.151989 167.187859,130.151989 C190.563656,130.151989 206.397382,122.989766 206.397382,104.141089 C206.397382,88.872079 197.724434,80.9544937 181.513749,77.1841805 L169.450336,74.5454669 C161.157236,72.6606714 158.707001,69.2673173 158.707001,63.6122087 C158.707001,57.2031819 163.795227,53.433591 172.090494,53.433591 C181.138234,53.433591 186.038702,56.826945 186.793343,64.9322877 L205.642742,62.669811 C204.134906,45.7052073 192.448451,38.7307419 173.220649,38.7307419 C156.256767,38.7307419 139.668401,45.1397687 139.668401,65.6862059 C139.668401,78.5042595 145.888948,86.6103244 161.53275,90.3799154 L174.35297,93.3955882 C183.96615,95.6580649 187.168858,99.6161354 187.168858,105.082764 C187.168858,112.055786 180.383594,114.883701 167.56554,114.883701 C148.526939,114.883701 140.610798,104.893563 136.085845,91.1331114 L129.865298,72.2844344 C121.949879,47.7792045 109.319583,38.7307419 84.2481918,38.7307419 C56.5395317,38.7307419 41.8359605,56.2607842 41.8359605,86.0434415 C41.8359605,114.696666 56.5395317,130.151989 82.9302793,130.151989 C104.22919,130.151989 114.409975,120.16185 114.409975,120.16185"></path>
		<path d="M33.7428942,111.301867 C31.8573766,111.868028 29.9725811,112.244265 27.522347,112.244265 C22.9981157,112.244265 19.7932412,110.171712 19.7932412,104.703639 L19.7932412,1.96784203 L0,1.96784203 L0,109.417072 C0,123.554482 9.80310296,129.400237 21.3010776,129.400237 C25.0713907,129.400237 28.6532243,128.833354 33.1774556,127.703921 L33.7428942,111.301867"></path>
		<path d="M272.183966,108.286195 C267.282776,111.680993 263.136226,113.378031 257.481117,113.378031 C250.31745,113.378031 246.358657,109.607718 246.358657,100.370776 L246.358657,56.2578956 L272.373168,56.2578956 L272.373168,40.8018505 L246.547137,40.8018505 L246.547137,19.8762877 L226.566138,22.327244 L226.566138,40.8018505 L213.93512,40.8018505 L213.93512,56.2578956 L226.566138,56.2578956 L226.566138,104.515882 C226.566138,121.861777 236.556276,130.151989 252.767684,130.151989 C261.627667,130.151989 269.545252,128.457839 275.7658,124.876728 L272.183966,108.286195"></path>
		<path d="M289.376045,115.071458 C289.376045,122.802008 295.408835,129.022556 303.136496,129.022556 C311.243283,129.022556 317.275351,122.802008 317.275351,115.071458 C317.275351,107.154595 311.243283,101.124694 303.136496,101.124694 C295.408835,101.124694 289.376045,107.154595 289.376045,115.071458"></path>
		<path d="M337.766183,56.2578956 L337.766183,127.890956 L357.559425,127.890956 L357.559425,56.2578956 L379.8029,56.2578956 L379.8029,40.8018505 L357.559425,40.8018505 L357.559425,32.883543 C357.559425,21.0086093 362.649817,17.2390183 370.943639,17.2390183 C376.787227,17.2390183 380.74602,18.5569309 385.270251,21.0086093 L388.473681,4.41879831 C383.196976,1.96784203 376.975707,0.64848519 369.435803,0.64848519 C352.845992,0.64848519 337.766183,8.56534838 337.766183,32.1289027 L337.766183,40.8018505 L325.135887,40.8018505 L325.135887,56.2578956 L337.766183,56.2578956"></path>
		<path d="M458.672564,57.956378 C456.410087,43.8182454 447.173867,38.726409 435.10901,38.726409 C423.044874,38.726409 412.677777,44.1937602 408.152102,57.5772525 L405.70259,40.8018505 L389.678939,40.8018505 L389.678939,127.890956 L409.472181,127.890956 L409.472181,78.6920169 C409.472181,61.9130042 418.143684,55.5039774 427.380626,55.5039774 C436.994528,55.5039774 440.95332,61.9130042 440.95332,72.2815458 L440.95332,127.890956 L460.558082,127.890956 L460.558082,78.5035374 C460.558082,61.9130042 469.417343,55.5039774 478.655007,55.5039774 C488.080429,55.5039774 492.037777,61.9130042 492.037777,72.2815458 L492.037777,127.890956 L511.83174,127.890956 L511.83174,65.3085247 C511.83174,46.6461608 500.898482,38.726409 486.382669,38.726409 C474.131498,38.726409 463.196795,44.1937602 458.672564,57.956378"></path>
	</g>
</svg>
